Yaru++/mimetypes/scalable/text-x-lilypond.svg

<svg height="256" viewBox="0 0 67.73 67.73" width="256" xmlns="http://www.w3.org/2000/svg" xmlns:xlink="http://www.w3.org/1999/xlink"><linearGradient id="a" gradientTransform="matrix(0 .11988342 .11987999 0 .362762 3.485649)" gradientUnits="userSpaceOnUse" x1="-35.310345" x2="529.65515" y1="401.58368" y2="119.09284"><stop offset="0" stop-color="#f2f2f2"/><stop offset="1" stop-color="#f9f9f9"/></linearGradient><linearGradient id="b" gradientUnits="userSpaceOnUse" x1="88" x2="488" y1="88" y2="488"><stop offset="0" stop-opacity=".588235"/><stop offset=".88" stop-opacity="0"/><stop offset="1"/></linearGradient><filter id="c" color-interpolation-filters="sRGB" height="1.087725" width="1.105998" x="-.052999" y="-.043863"><feGaussianBlur stdDeviation="8.4801079"/></filter><filter id="d" color-interpolation-filters="sRGB" height="1.021931" width="1.0265" x="-.01325" y="-.010966"><feGaussianBlur stdDeviation="2.120027"/></filter><path d="m20.70399 3.4856494c-9.338465 0-10.343273.9591779-10.297505 10.3165306v19.315345 19.315344c-.04577 9.357355.95904 10.316531 10.297505 10.316531h25.969365c9.338465 0 10.297506-.959068 10.297506-10.316531v-19.315344-19.315345c0-9.3574641-.959041-10.3165306-10.297506-10.3165306z" fill="none" opacity=".2" stroke="#000" stroke-width="1.058281"/><path d="m189.84323 74c-70.59344 0-78.18921 7.250835-77.84323 77.98706v146.01294 146.01294c-.34598 70.73623 7.24979 77.98706 77.84323 77.98706h196.31354c70.59344 0 76.00668-7.27384 77.84323-77.98706v-146.01294-146.01294c0-70.737067-7.24979-77.98706-77.84323-77.98706z" filter="url(#d)" opacity=".1" transform="matrix(.13228516 0 0 .13228516 -4.409451 -6.038882)"/><path d="m189.84323 74c-70.59344 0-78.18921 7.250835-77.84323 77.98706v146.01294 146.01294c-.34598 70.73623 7.24979 77.98706 77.84323 77.98706h196.31354c70.59344 0 77.84323-7.24999 77.84323-77.98706v-146.01294-146.01294c0-70.737067-7.24979-77.98706-77.84323-77.98706z" fill="url(#b)" filter="url(#c)" opacity=".3" transform="matrix(.13228516 0 0 .13228516 -4.409451 -6.038882)"/><path d="m20.70399 62.7494c-9.338465 0-10.343273-.959179-10.297505-10.316531v-19.315344-19.315345c-.045768-9.3573548.95904-10.3165306 10.297505-10.3165306h25.969365c9.338465 0 10.297506.9590673 10.297506 10.3165306v19.315345 19.315344c0 9.357463-.959041 10.316531-10.297506 10.316531z" fill="url(#a)"/><path d="m20.704059 3.4856494c-9.338466 0-10.343342.9593396-10.297574 10.3166916v.529141c-.04577-9.3573524.959108-10.316692 10.297574-10.316692h25.969228c9.338467 0 10.297574.9592282 10.297574 10.316692v-.529141c0-9.3574634-.959107-10.3166916-10.297574-10.3166916z" fill="#fff" opacity=".6"/><g fill="none"><path d="m10.409011 23.048949h46.564374" opacity=".5" stroke="#000" stroke-width=".899539"/><path d="m10.409011 16.979736h46.564374" opacity=".5"/><path d="m10.409011 29.14997h46.564374" opacity=".5" stroke="#000" stroke-width="1.058281"/><path d="m10.409011 41.320205h46.564374" opacity=".5" stroke="#000" stroke-width="1.058281"/><path d="m10.409011 35.235087h46.564374" opacity=".5" stroke="#000" stroke-width="1.058281"/><path d="m10.409011 47.405322h46.564374" opacity=".5" stroke="#000" stroke-width="1.058281"/></g><path d="m40.234076 17.445911c-.375888-.0042-.875635.05445-1.540555.154369l-11.064096 1.691797c-2.671292.568816-2.662122.745747-2.671155 3.002558v4.419227 2.224074 11.668275c-.11141-.07803-.2213-.156509-.336483-.2337v.000794c-.848689-.568736-1.75322-.973492-2.968167-.973495-1.521805 0-2.429341.582714-2.978719 1.350232-.549375.767516-.731587 1.734947-.731587 2.482786 0 .901796.307901 1.864245.975841 2.597684.667942.733439 1.694863 1.247039 3.171385 1.24706 1.66733 0 2.84017-.465578 3.503178-1.374853.522021-.715906.810688-1.672338.913704-2.852099v-.0021-.0013c.01442-.143124.0249-.290144.034-.441607.014-.233201.01095-.669451.01095-.669451v-14.020724c0-2.00297-.000098-2.122537 2.671935-2.579315l7.868092-1.234162c2.676849-.350233 2.677409-.106677 2.677409 1.397577v1.237289 11.62998c-.108418-.07597-.215474-.152382-.327495-.227451v.000794c-.848689-.568737-1.752826-.973492-2.967775-.973495-1.521814 0-2.42973.582716-2.97911 1.350232-.549375.767516-.731587 1.734941-.731587 2.482786 0 .901793.30829 1.864247.97623 2.597684.667942.733439 1.694853 1.247428 3.171386 1.247451 1.66733 0 2.84017-.465969 3.503181-1.375244.522021-.715906.810297-1.671944.913312-2.851706v-.0021-.0016c.01442-.143132.0249-.289754.034-.441218.014-.233203.01132-.669842.01132-.669842v-15.505817-4.000285c0-1.756733-.01154-2.33852-1.139198-2.351085z" fill="#333"/><path d="m48.953605 28.038759c-.599045.02125-.976638-.26742-.98567 1.989392v4.419226 2.224073 11.668276c-.111411-.07803-.2213-.156509-.336483-.2337v.000793c-.848689-.568736-1.75322-.973491-2.968167-.973494-1.521806 0-2.429343.582713-2.97872 1.350232-.549375.767516-.731587 1.734946-.731587 2.482786 0 .901796.307901 1.864244.975841 2.597684.667942.733439 1.694864 1.247039 3.171385 1.24706 1.667331 0 2.840171-.465578 3.503179-1.374853.522021-.715906.810688-1.672339.913704-2.8521v-.0021-.0013c.01442-.143125.0249-.290144.034-.441608.014-.2332.01095-.66945.01095-.66945v-14.020723c-.06038-4.512847.273108-7.412678-.492961-7.404678z" fill="#333"/><path d="m33.688673 3.4856494v59.2637506h12.984614c9.338464 0 10.054627-.962123 10.297574-10.316435v-19.31544-19.315442c0-9.3574639-.95911-10.3164336-10.297574-10.3164336z" fill="#fff" opacity=".1"/><path d="m10.406485 33.117525v19.31544c-.04577 9.357354.959109 10.316435 10.297574 10.316435h25.969228c9.338464 0 10.054627-.962123 10.297574-10.316435v-19.31544z" fill="#fff" opacity=".2"/><path d="m41.096642 62.7494 15.874219-15.874219v5.948567c-.01384 8.994282-1.006077 9.925652-10.099734 9.925652z" fill="#fff" opacity=".4"/></svg>

<?xml version="1.0" encoding="UTF-8" standalone="no"?>
<svg
   xmlns:dc="http://purl.org/dc/elements/1.1/"
   xmlns:cc="http://creativecommons.org/ns#"
   xmlns:rdf="http://www.w3.org/1999/02/22-rdf-syntax-ns#"
   xmlns:svg="http://www.w3.org/2000/svg"
   xmlns="http://www.w3.org/2000/svg"
   xmlns:xlink="http://www.w3.org/1999/xlink"
   xmlns:sodipodi="http://sodipodi.sourceforge.net/DTD/sodipodi-0.dtd"
   xmlns:inkscape="http://www.inkscape.org/namespaces/inkscape"
   height="256"
   viewBox="0 0 67.73 67.73"
   width="256"
   version="1.1"
   id="svg42"
   sodipodi:docname="5.svg"
   inkscape:version="0.92.5 (2060ec1f9f, 2020-04-08)">
  <metadata
     id="metadata48">
    <rdf:RDF>
      <cc:Work
         rdf:about="">
        <dc:format>image/svg+xml</dc:format>
        <dc:type
           rdf:resource="http://purl.org/dc/dcmitype/StillImage" />
        <dc:title></dc:title>
      </cc:Work>
    </rdf:RDF>
  </metadata>
  <defs
     id="defs46">
    <linearGradient
       gradientUnits="userSpaceOnUse"
       y2="119.09284"
       x2="529.65515"
       y1="401.58368"
       x1="-35.310345"
       id="linearGradient4226"
       xlink:href="#linearGradient4338"
       inkscape:collect="always"
       gradientTransform="matrix(0,0.11988342,0.11987999,0,0.3627617,3.4856494)" />
    <linearGradient
       inkscape:collect="always"
       id="linearGradient4338">
      <stop
         style="stop-color:#f2f2f2;stop-opacity:1"
         offset="0"
         id="stop4340" />
      <stop
         style="stop-color:#f9f9f9;stop-opacity:1"
         offset="1"
         id="stop4342" />
    </linearGradient>
    <linearGradient
       inkscape:collect="always"
       xlink:href="#linearGradient4360"
       id="linearGradient4358"
       x1="88"
       y1="88"
       x2="488"
       y2="488"
       gradientUnits="userSpaceOnUse" />
    <linearGradient
       id="linearGradient4360"
       inkscape:collect="always">
      <stop
         id="stop4362"
         offset="0"
         style="stop-color:#000000;stop-opacity:0.58823532" />
      <stop
         style="stop-color:#000000;stop-opacity:0"
         offset="0.88"
         id="stop4364" />
      <stop
         id="stop4366"
         offset="1"
         style="stop-color:#000000;stop-opacity:1" />
    </linearGradient>
    <filter
       inkscape:collect="always"
       style="color-interpolation-filters:sRGB"
       id="filter4380"
       x="-0.052999184"
       width="1.1059984"
       y="-0.043862626"
       height="1.0877253">
      <feGaussianBlur
         inkscape:collect="always"
         stdDeviation="8.4801079"
         id="feGaussianBlur4382" />
    </filter>
    <filter
       inkscape:collect="always"
       style="color-interpolation-filters:sRGB"
       id="filter4346"
       x="-0.013249796"
       width="1.0264996"
       y="-0.010965657"
       height="1.0219313">
      <feGaussianBlur
         inkscape:collect="always"
         stdDeviation="2.120027"
         id="feGaussianBlur4348" />
    </filter>
  </defs>
  <sodipodi:namedview
     pagecolor="#ffffff"
     bordercolor="#666666"
     borderopacity="1"
     objecttolerance="10"
     gridtolerance="10"
     guidetolerance="10"
     inkscape:pageopacity="0"
     inkscape:pageshadow="2"
     inkscape:window-width="1920"
     inkscape:window-height="1016"
     id="namedview44"
     showgrid="false"
     inkscape:zoom="3.4639785"
     inkscape:cx="127.33085"
     inkscape:cy="129.82524"
     inkscape:window-x="0"
     inkscape:window-y="27"
     inkscape:window-maximized="1"
     inkscape:current-layer="svg42" />
  <linearGradient
     id="a"
     gradientTransform="matrix(0 -.11988342 .11987999 0 .362762 292.01605)"
     gradientUnits="userSpaceOnUse"
     x1="529.65515"
     x2="-35.310345"
     y1="401.58368"
     y2="119.09284">
    <stop
       offset="0"
       stop-color="#f2f2f2"
       id="stop2" />
    <stop
       offset="1"
       stop-color="#f9f9f9"
       id="stop4" />
  </linearGradient>
  <linearGradient
     id="b"
     gradientUnits="userSpaceOnUse"
     x1="88"
     x2="488"
     y1="88"
     y2="488">
    <stop
       offset="0"
       stop-opacity=".588235"
       id="stop7" />
    <stop
       offset=".88"
       stop-opacity="0"
       id="stop9" />
    <stop
       offset="1"
       id="stop11" />
  </linearGradient>
  <filter
     id="c"
     color-interpolation-filters="sRGB"
     height="1.087725"
     width="1.105998"
     x="-.052999"
     y="-.043863">
    <feGaussianBlur
       stdDeviation="8.4801079"
       id="feGaussianBlur14" />
  </filter>
  <filter
     id="d"
     color-interpolation-filters="sRGB"
     height="1.021931"
     width="1.0265"
     x="-.01325"
     y="-.010966">
    <feGaussianBlur
       stdDeviation="2.120027"
       id="feGaussianBlur17" />
  </filter>
  <path
     sodipodi:nodetypes="scccssscsss"
     inkscape:connector-curvature="0"
     id="path1163"
     d="m 20.70399,3.4856494 c -9.338465,0 -10.343273,0.9591779 -10.297505,10.3165306 V 33.117525 52.432869 C 10.360715,61.790224 11.365525,62.7494 20.70399,62.7494 h 25.969365 c 9.338465,0 10.297506,-0.959068 10.297506,-10.316531 V 33.117525 13.80218 c 0,-9.3574641 -0.959041,-10.3165306 -10.297506,-10.3165306 z"
     style="color:#000000;display:inline;overflow:visible;visibility:visible;opacity:0.2;fill:none;fill-opacity:1;fill-rule:nonzero;stroke:#000000;stroke-width:1.0582813;stroke-miterlimit:4;stroke-dasharray:none;stroke-opacity:1;marker:none;enable-background:accumulate" />
  <path
     style="color:#000000;display:inline;overflow:visible;visibility:visible;opacity:0.1;fill:#000000;fill-opacity:1;fill-rule:nonzero;stroke:none;stroke-width:2;marker:none;filter:url(#filter4346);enable-background:accumulate"
     d="M 189.84323,74 C 119.24979,74 111.65402,81.250835 112,151.98706 V 298 444.01294 C 111.65402,514.74917 119.24979,522 189.84323,522 H 386.15677 C 456.75021,522 462.16345,514.72616 464,444.01294 V 298 151.98706 C 464,81.249993 456.75021,74 386.15677,74 Z"
     id="rect4158-9"
     inkscape:connector-curvature="0"
     sodipodi:nodetypes="scccssscsss"
     transform="matrix(0.13228516,0,0,0.13228516,-4.4094514,-6.0388816)" />
  <path
     sodipodi:nodetypes="scccssscsss"
     inkscape:connector-curvature="0"
     id="path4350"
     d="M 189.84323,74 C 119.24979,74 111.65402,81.250835 112,151.98706 V 298 444.01294 C 111.65402,514.74917 119.24979,522 189.84323,522 H 386.15677 C 456.75021,522 464,514.75001 464,444.01294 V 298 151.98706 C 464,81.249993 456.75021,74 386.15677,74 Z"
     style="color:#000000;display:inline;overflow:visible;visibility:visible;opacity:0.3;fill:url(#linearGradient4358);fill-opacity:1;fill-rule:nonzero;stroke:none;stroke-width:2;marker:none;filter:url(#filter4380);enable-background:accumulate"
     transform="matrix(0.13228516,0,0,0.13228516,-4.4094514,-6.0388816)" />
  <path
     style="color:#000000;display:inline;overflow:visible;visibility:visible;fill:url(#linearGradient4226);fill-opacity:1;fill-rule:nonzero;stroke:none;stroke-width:0.26457033;marker:none;enable-background:accumulate"
     d="m 20.70399,62.7494 c -9.338465,0 -10.343273,-0.959179 -10.297505,-10.316531 V 33.117525 13.80218 C 10.360717,4.4448252 11.365525,3.4856494 20.70399,3.4856494 h 25.969365 c 9.338465,0 10.297506,0.9590673 10.297506,10.3165306 v 19.315345 19.315344 c 0,9.357463 -0.959041,10.316531 -10.297506,10.316531 z"
     id="rect4158"
     inkscape:connector-curvature="0"
     sodipodi:nodetypes="scccssscsss" />
  <path
     style="color:#000000;display:inline;overflow:visible;visibility:visible;opacity:0.6;fill:#ffffff;fill-opacity:1;fill-rule:nonzero;stroke:none;stroke-width:0.26457033;marker:none;enable-background:accumulate"
     d="m 20.704059,3.4856494 c -9.338466,0 -10.343342,0.9593396 -10.297574,10.3166916 v 0.529141 C 10.360715,4.9741296 11.365593,4.01479 20.704059,4.01479 h 25.969228 c 9.338467,0 10.297574,0.9592282 10.297574,10.316692 v -0.529141 c 0,-9.3574634 -0.959107,-10.3166916 -10.297574,-10.3166916 z"
     id="path931"
     inkscape:connector-curvature="0" />
  <path
     style="display:inline;opacity:0.5;fill:none;stroke:#000000;stroke-width:0.89953911;stroke-linecap:butt;stroke-linejoin:miter;stroke-miterlimit:4;stroke-dasharray:none;stroke-opacity:1;enable-background:new"
     d="M 10.409011,23.048949 H 56.973385"
     id="path968"
     inkscape:connector-curvature="0" />
  <path
     style="display:inline;opacity:0.5;fill:none;stroke:#000000;stroke-width:0;stroke-linecap:butt;stroke-linejoin:miter;stroke-miterlimit:4;stroke-dasharray:none;stroke-opacity:1;enable-background:new"
     d="M 10.409011,16.979736 H 56.973385"
     id="path968-5"
     inkscape:connector-curvature="0" />
  <path
     style="display:inline;opacity:0.5;fill:none;stroke:#000000;stroke-width:1.0582813;stroke-linecap:butt;stroke-linejoin:miter;stroke-miterlimit:4;stroke-dasharray:none;stroke-opacity:1;enable-background:new"
     d="M 10.409011,29.14997 H 56.973385"
     id="path968-3"
     inkscape:connector-curvature="0" />
  <path
     style="display:inline;opacity:0.5;fill:none;stroke:#000000;stroke-width:1.0582813;stroke-linecap:butt;stroke-linejoin:miter;stroke-miterlimit:4;stroke-dasharray:none;stroke-opacity:1;enable-background:new"
     d="M 10.409011,41.320205 H 56.973385"
     id="path968-56"
     inkscape:connector-curvature="0" />
  <path
     style="display:inline;opacity:0.5;fill:none;stroke:#000000;stroke-width:1.0582813;stroke-linecap:butt;stroke-linejoin:miter;stroke-miterlimit:4;stroke-dasharray:none;stroke-opacity:1;enable-background:new"
     d="M 10.409011,35.235087 H 56.973385"
     id="path968-5-2"
     inkscape:connector-curvature="0" />
  <path
     style="display:inline;opacity:0.5;fill:none;stroke:#000000;stroke-width:1.0582813;stroke-linecap:butt;stroke-linejoin:miter;stroke-miterlimit:4;stroke-dasharray:none;stroke-opacity:1;enable-background:new"
     d="M 10.409011,47.405322 H 56.973385"
     id="path968-3-9"
     inkscape:connector-curvature="0" />
  <path
     style="font-style:normal;font-variant:normal;font-weight:normal;font-stretch:normal;font-size:15px;line-height:125%;font-family:Ubuntu;-inkscape-font-specification:Ubuntu;text-align:center;letter-spacing:0px;word-spacing:0px;writing-mode:lr-tb;text-anchor:middle;display:inline;opacity:1;fill:#333333;fill-opacity:1;stroke:none;stroke-width:0.44122753;enable-background:new"
     d="m 40.234076,17.445911 c -0.375888,-0.0042 -0.875635,0.05445 -1.540555,0.154369 l -11.064096,1.691797 c -2.671292,0.568816 -2.662122,0.745747 -2.671155,3.002558 v 4.419227 2.224074 11.668275 c -0.11141,-0.07803 -0.2213,-0.156509 -0.336483,-0.2337 v 7.94e-4 c -0.848689,-0.568736 -1.75322,-0.973492 -2.968167,-0.973495 -1.521805,0 -2.429341,0.582714 -2.978719,1.350232 -0.549375,0.767516 -0.731587,1.734947 -0.731587,2.482786 0,0.901796 0.307901,1.864245 0.975841,2.597684 0.667942,0.733439 1.694863,1.247039 3.171385,1.24706 1.66733,0 2.84017,-0.465578 3.503178,-1.374853 0.522021,-0.715906 0.810688,-1.672338 0.913704,-2.852099 v -0.0021 -0.0013 c 0.01442,-0.143124 0.0249,-0.290144 0.034,-0.441607 0.014,-0.233201 0.01095,-0.669451 0.01095,-0.669451 V 27.715438 c 0,-2.00297 -9.8e-5,-2.122537 2.671935,-2.579315 l 7.868092,-1.234162 c 2.676849,-0.350233 2.677409,-0.106677 2.677409,1.397577 v 1.237289 11.62998 c -0.108418,-0.07597 -0.215474,-0.152382 -0.327495,-0.227451 v 7.94e-4 c -0.848689,-0.568737 -1.752826,-0.973492 -2.967775,-0.973495 -1.521814,0 -2.42973,0.582716 -2.97911,1.350232 -0.549375,0.767516 -0.731587,1.734941 -0.731587,2.482786 0,0.901793 0.30829,1.864247 0.97623,2.597684 0.667942,0.733439 1.694853,1.247428 3.171386,1.247451 1.66733,0 2.84017,-0.465969 3.503181,-1.375244 0.522021,-0.715906 0.810297,-1.671944 0.913312,-2.851706 v -0.0021 -0.0016 c 0.01442,-0.143132 0.0249,-0.289754 0.034,-0.441218 0.014,-0.233203 0.01132,-0.669842 0.01132,-0.669842 V 23.797281 19.796996 c 0,-1.756733 -0.01154,-2.33852 -1.139198,-2.351085 z"
     id="path4393"
     inkscape:connector-curvature="0"
     sodipodi:nodetypes="cccccccccccsccccccccsccsccccccssccccccccsc" />
  <path
     style="font-style:normal;font-variant:normal;font-weight:normal;font-stretch:normal;font-size:15px;line-height:125%;font-family:Ubuntu;-inkscape-font-specification:Ubuntu;text-align:center;letter-spacing:0px;word-spacing:0px;writing-mode:lr-tb;text-anchor:middle;display:inline;opacity:1;fill:#333333;fill-opacity:1;stroke:none;stroke-width:0.44122753;enable-background:new"
     d="m 48.953605,28.038759 c -0.599045,0.02125 -0.976638,-0.26742 -0.98567,1.989392 v 4.419226 2.224073 11.668276 c -0.111411,-0.07803 -0.2213,-0.156509 -0.336483,-0.2337 v 7.93e-4 c -0.848689,-0.568736 -1.75322,-0.973491 -2.968167,-0.973494 -1.521806,0 -2.429343,0.582713 -2.97872,1.350232 -0.549375,0.767516 -0.731587,1.734946 -0.731587,2.482786 0,0.901796 0.307901,1.864244 0.975841,2.597684 0.667942,0.733439 1.694864,1.247039 3.171385,1.24706 1.667331,0 2.840171,-0.465578 3.503179,-1.374853 0.522021,-0.715906 0.810688,-1.672339 0.913704,-2.8521 v -0.0021 -0.0013 c 0.01442,-0.143125 0.0249,-0.290144 0.034,-0.441608 0.014,-0.2332 0.01095,-0.66945 0.01095,-0.66945 V 35.448953 c -0.06038,-4.512847 0.273108,-7.412678 -0.492961,-7.404678 z"
     id="path4393-36"
     inkscape:connector-curvature="0"
     sodipodi:nodetypes="cccccccccsccccccccccc" />
  <path
     style="color:#000000;display:inline;overflow:visible;visibility:visible;opacity:0.1;fill:#ffffff;fill-opacity:1;fill-rule:nonzero;stroke:none;stroke-width:0.26457033;marker:none;enable-background:accumulate"
     d="M 33.688673,3.4856494 V 62.7494 h 12.984614 c 9.338464,0 10.054627,-0.962123 10.297574,-10.316435 V 33.117525 13.802083 c 0,-9.3574639 -0.95911,-10.3164336 -10.297574,-10.3164336 z"
     id="path4231"
     inkscape:connector-curvature="0"
     sodipodi:nodetypes="ccsscssc" />
  <path
     inkscape:connector-curvature="0"
     style="color:#000000;display:inline;overflow:visible;visibility:visible;opacity:0.2;fill:#ffffff;fill-opacity:1;fill-rule:nonzero;stroke:none;stroke-width:0.26457033;marker:none;enable-background:accumulate"
     d="m 10.406485,33.117525 v 19.31544 C 10.360715,61.790319 11.365594,62.7494 20.704059,62.7494 h 25.969228 c 9.338464,0 10.054627,-0.962123 10.297574,-10.316435 v -19.31544 z"
     id="path4255"
     sodipodi:nodetypes="ccssscc" />
  <path
     style="color:#000000;display:inline;overflow:visible;visibility:visible;opacity:0.4;fill:#ffffff;fill-opacity:1;fill-rule:nonzero;stroke:none;stroke-width:2.11656237;stroke-linecap:butt;stroke-linejoin:miter;stroke-miterlimit:4;stroke-dasharray:none;stroke-dashoffset:0;stroke-opacity:1;marker:none;enable-background:accumulate"
     d="M 41.096642,62.7494 56.970861,46.875181 v 5.948567 C 56.957021,61.81803 55.964784,62.7494 46.871127,62.7494 Z"
     id="path4254"
     inkscape:connector-curvature="0"
     sodipodi:nodetypes="cccsc" />
</svg>
